Numix-GalliumOS/32/status/pamac-download.svg

<?xml version="1.0" encoding="UTF-8" standalone="no"?>
<svg
   xmlns:dc="http://purl.org/dc/elements/1.1/"
   xmlns:cc="http://creativecommons.org/ns#"
   xmlns:rdf="http://www.w3.org/1999/02/22-rdf-syntax-ns#"
   xmlns:svg="http://www.w3.org/2000/svg"
   xmlns="http://www.w3.org/2000/svg"
   xmlns:sodipodi="http://sodipodi.sourceforge.net/DTD/sodipodi-0.dtd"
   xmlns:inkscape="http://www.inkscape.org/namespaces/inkscape"
   width="32"
   height="32"
   viewBox="0 0 32 32"
   id="svg2"
   version="1.1"
   inkscape:version="0.91 r"
   sodipodi:docname="pamac-template.svg">
  <metadata
     id="metadata10">
    <rdf:RDF>
      <cc:Work
         rdf:about="">
        <dc:format>image/svg+xml</dc:format>
        <dc:type
           rdf:resource="http://purl.org/dc/dcmitype/StillImage" />
        <dc:title></dc:title>
      </cc:Work>
    </rdf:RDF>
  </metadata>
  <defs
     id="defs8" />
  <sodipodi:namedview
     pagecolor="#ffffff"
     bordercolor="#666666"
     borderopacity="1"
     objecttolerance="10"
     gridtolerance="10"
     guidetolerance="10"
     inkscape:pageopacity="0"
     inkscape:pageshadow="2"
     inkscape:window-width="1366"
     inkscape:window-height="747"
     id="namedview6"
     showgrid="true"
     inkscape:zoom="5.6568543"
     inkscape:cx="36.367217"
     inkscape:cy="-1.0902549"
     inkscape:window-x="0"
     inkscape:window-y="21"
     inkscape:window-maximized="1"
     inkscape:current-layer="svg2">
    <inkscape:grid
       type="xygrid"
       id="grid4138" />
  </sodipodi:namedview>
  <path
     style="fill:#c28e5c"
     d="M 10 5 L 5 11 L 15 11 L 15 5 L 10 5 z M 17 5 L 17 11 L 27 11 L 22 5 L 17 5 z M 5 13 L 5 27 L 19.671875 27 L 16.171875 23.5 L 21.572266 23.5 L 21.572266 19 L 27 19 L 27 13 L 5 13 z "
     id="path4" />
  <path
     sodipodi:nodetypes="ccccccccccccc"
     inkscape:connector-curvature="0"
     id="path4-4"
     d="m 46.000112,21 0,3 -2.999943,0 -3.75e-4,3 2.999943,0 1.88e-4,3 2.999944,0 -1.88e-4,-3 2.999944,0 L 52,24 l -2.999944,0 0,-3 z"
     style="fill:#4db147;fill-opacity:1" />
  <path
     inkscape:connector-curvature="0"
     style="fill:#4db147;fill-opacity:1"
     d="m 25.499897,30 4.5,-4.5 -2.571428,0 0,-4.5 -3.857144,0 0,4.5 -2.571428,0 z"
     id="path4139" />
</svg>

<svg xmlns="http://www.w3.org/2000/svg" viewBox="0 0 32 32">
 <path d="m 10 5 l -5 6 l 10 0 l 0 -6 l -5 0 z m 7 0 l 0 6 l 10 0 l -5 -6 l -5 0 z m -12 8 l 0 14 l 14.672 0 l -3.5 -3.5 l 5.4 0 l 0 -4.5 l 5.428 0 l 0 -6 l -22 0 z" style="fill:#c28e5c"/>
 <path d="m 25.5 30 4.5 -4.5 -2.571 0 0 -4.5 -3.857 0 0 4.5 -2.571 0 z" style="fill:#4db147;fill-opacity:1"/>
</svg>
